X:2
T:Granny's Jawbone
C:Jack Campin 1998
N:Based on God Defend New Zealand
M:4/4
L:1/8
K:G
G/F/E/D/ F>G G2 D>G|B/A/G/A/ B<A G3F     |Ec3     DB3     |A>G      F<E  D3B   |
G/F/E/D/ D>G E2 E>F|B/A/G/A/ B>G E>GA>c  |B>GG>D  E>A,C>A,|G/F/E/D/ F<A, G,3B,||
D>Bd>c       B>cc>B|d>ee>d       d>ed>B  |A2 B2   c>BA>G  |A>G      F<E  D2B,2 |
G>cA>d       e2 e<f|B>FG>B,      E>G,C>A,|B,>GB>d e<aa>e  |g/f/e/d/ f<a  g4   |]
